loleaflet/images/lc_animationobjects.svg

<svg viewBox="0 0 24 24" xmlns="http://www.w3.org/2000/svg"><path d="m3 2c-.554 0-1 .446-1 1v18c0 .554.446 1 1 1h18c.554 0 1-.446 1-1v-18c0-.554-.446-1-1-1zm0 3h18v14h-18z" fill="#808080"/><g fill="#fff"><path d="m4 3v1h1v-1zm3 0v1h1v-1zm3 0v1h1v-1zm3 0v1h1v-1zm3 0v1h1v-1zm3 0v1h1v-1z"/><path d="m3 5h18v14h-18z"/><path d="m4 20v1h1v-1zm3 0v1h1v-1zm3 0v1h1v-1zm3 0v1h1v-1zm3 0v1h1v-1zm3 0v1h1v-1z"/></g></svg>

<svg xmlns="http://www.w3.org/2000/svg" viewBox="0 0 20 20"><path d="M3,2A1,1,0,0,0,2,3V21a1,1,0,0,0,1,1H21a1,1,0,0,0,1-1V3a1,1,0,0,0-1-1Z" transform="translate(-2 -2)" fill="#696d72"/><path d="M4,3V4H5V3ZM7,3V4H8V3Zm3,0V4h1V3Zm3,0V4h1V3Zm3,0V4h1V3Zm3,0V4h1V3Z" transform="translate(-2 -2)" fill="#fff"/><path d="M4,20v1H5V20Zm3,0v1H8V20Zm3,0v1h1V20Zm3,0v1h1V20Zm3,0v1h1V20Zm3,0v1h1V20Z" transform="translate(-2 -2)" fill="#fff"/><rect x="1.38" y="3.31" width="17.23" height="13.38" fill="#fff"/></svg>
